X: 1
T:no name
M:C|
L:1/8
S:Paddy O'Neill
R:reel
Z:id:hn-reel-749
K:Dmix
AD{A}ED ~A3B|AD{A}ED ~G2FG|AD{A}ED A2Ac|1 BGAF ~G2FG:|2 BGAF ~G3F||
|:E2c2 B2c2|~A3B ~A3G|1 E2c2 B2c2|FG{A}GB FG{A}GB:|2 ABeg fde2|GBAF ~G2F
G||
